X:1
T:Je suis honteux
T:N.Marcadé
T:Source : Livre IX de 27 chansons nouvelles à parties---Paris---N.du Chemin---1551. Editor : André Vierendeels ( 13/04/18) Notes : Original clefs : C1, C3, C4, F4 Original note values have been halved Editorial accidentals above the staff  
T:Je suis honteux
T:©
T:©
T:©
T:©
T:©
C:N.Marcadé
Z:©
%%score [ 1 2 3 4 ]
L:1/8
Q:1/4=120
M:2/2
K:F
V:1 treble nm="Soprano" snm="S"
V:2 treble nm="Alto" snm="A"
V:3 treble-8 nm="Tenor" snm="T"
V:4 bass nm="Bass" snm="B"
V:1
 G8 | F6 G2 | A4 z2 A2 | A3 A A2 A2 | G4 z4 | z2 d2 d2 d2 | A2 d2 d2 c2 | B2 B2 A4 | %8
w: Je|suis hon-|teux, et|n'o- se des- cou-|vrir|la bon- ne'a-|mour, que i'ay en-|vers m'a- my-|
w: Si|u- ne|fois ie|la puis re- cou-|vrir,|à mon se-|cret, seu- le, sans|com- pa- gny-|
"^b" G3 F ED G2 |1"^#" G2 F2 G4 :|2 G2 F2 G4 || z4 z2 G2 | G2 G2 c3 B | A2 G2 A2 c2 | B2 A4 d2- | %15
w: |* * e,|(my)- * e,|ie|luy di- ray, da-|me, trop il m'en-|nuy- * *|
w: |* * e,|(gny)- * e|||||
 d2 c2 d2 B2 | B2 B2 A4 | z2 B2 B2 B2 | A2 A2 G2 G2 | F2 A2 G4 | F8 | z4 G4- | G4 F4- | F2 G2 A4 | %24
w: * * e, de|vo- stre coeur,|de vo- stre|coeur que n'en sçay|la pen- sé-|e:|Ac-|* col-|* lez moy|
w: |||||||||
 z2 A2 A3 A | A2 A2 G4 | G4 z2 d2 | d2 d2 A2 d2 | d2 c2 B2 B2 | A4 G3 F |"^b" ED G4 F2 | G4 z2 G2 | %32
w: doul- ce- ment|ie vous pri-|e, et|dic- tes moy (s'il|vous plaist) la iour-|né- * *||e, ac-|
w: ||||||||
 F2 G2 A4 | z2 A2 A3 A | A2 A2 G4 | G4 z2 d2 | d2 d2 A2 d2 | d2 c2 B2 B2 | A4 G3 F |"^b" ED G4 F2 | %40
w: col- lez moy|doul- ce- ment,|ie vous pri-|e, et|dic- tes moy (s'il|vous plaist) _ la|iour- né- *||
w: ||||||||
 G8 |] %41
w: e.|
w: |
V:2
 D8 | D6 E2 | F2 F2 G2 F2 | F2 F2 C4 | z2 G2 G2 G2 | D4 F4 | F2 F2 E2 E2 | D3 E F4 | %8
w: Je|suis hon-|teux, et n'o- se|des- cou- vrir,|la bon- ne'a-|mour, que|i'ay en- vers m'a-|my- * e,|
w: Si|u- ne|fois ie la puis|re- cou- vrir,|à mon se-|cret, seu-|le sans com- pa-|gny- * e,|
"^b" D2 E4 C2 |1 D4 D4 :|2 D4 D2 D2 || D2 D2 E4 | z2 E2 E2 E2 | FE DC D2 E2 | F6 A2 | A4 F4 | %16
w: en- vers m'a-|my- e-|my- e, ie|luy di- ray,|ie luy di-|ray, _ da- * me, trop|il m'en-|nuy- e,|
w: sans com- pa-|gny- e,|gny- e ie|luy di- ray|||||
 z2 F2 F2 F2 | D4 z2 F2 | F2 F2 D2 B,2 | A,2 D3 B, C2 | D8 | z4 D4- | D4 D4- |"^b" D2 E2 F2 F2 | %24
w: de vo- stre|coeur, de|vo- stre coeur que|n'en sçay la pen-|sé'e,|Ac-|* col-|* lez moy doul-|
w: ||||||||
 G2 F2 F2 F2 | C4 C2 G2 | G2 G2 D4 | F4 F2 F2 | E2 E2 D3 E |"^b" F4 D2 E2- | E2 C2 D4- | D4 z2 D2 | %32
w: ce- ment, ie vous|pri- e, et|dic- tes moy|(s'il vous plaist)|la iour- né- *||* * e,|_ ac-|
w: ||||||||
 D2 E2 F2 F2 | G2 F2 F2 F2 | C4 C2 G2 | G2 G2 D4 | F4 F2 F2 | E2 E2 D3 E | F4 D2 E2- | E2 C2 D4 | %40
w: col- lez moy doul-|ce- ment, ie vous|pri- e, et|dic- tes moy|(s'il vous plaist)|le iour- né- *|||
w: ||||||||
 D8 |] %41
w: e.|
w: |
V:3
 G8 | A6 B2 | c8 | z2 c2 c3 c | c2 c2 G4 | z4 z2 d2 | d2 d2 A4 | z4 c4 | B2 B2 cB AG |1 A4 G4 :|2 %10
w: Je|suis hon-|teux,|et n'o- se|des- cou- vrir|la|bon- ne'a- mour,|que|i'ay en- vers _ m'a- *|my- e,|
w: Si|u- ne|fois|ie la puis|re- cou- vrir,|à|mon se- cret,|seu-|le, sans com- * pa- *|gny- e,|
 A4 G4 || z2 G2 G2 G2 | c4 z2 c2 | c2 c2 f3 e | d2 c2 d2 f2 | e4 d4 | z2 d2 c2 c2 | B4 z2 d2 | %18
w: (my)- e,|ie luy di-|ray, ie|luy diray, da- me,|trop il m'en- nuy-|* e,|de vo- stre|coeur, de|
w: (gny)- e,||||||||
 c2 c2 B2 B2 | A2 F2 G2 A2 | B4 A4 | z4 B4- | B4 A4- | A2 B2 c4- | c4 z2 c2 | c3 c c2 c2 | G4 G4 | %27
w: vo- stre coeur que|n'en sçay la pen-|sé- e:|Ac-|* col-|* lez moy|_ doul-|ce- ment, ie vous|pri- e,|
w: |||||||||
 z2 d2 d2 d2 | A4 z4 | c4 B2 B2 | cB AG A4 | G4 z2 B2 | A2 B2 c4- | c4 z2 c2 | c3 c c2 c2 | G4 G4 | %36
w: et dic- tes|moy|(s'il vous plaist)|la _ iour- * né-|e, ac-|col- lez moy|_ doul-|ce- ment, ie vous|pri- e,|
w: |||||||||
 z2 d2 d2 d2 | A4 z4 | c4 B2 B2 |"^b" cB AG A4 | G8 |] %41
w: et dic- tes|moy|(s'il vous plaist)|la _ iour _ né-|e.|
w: |||||
V:4
 G,8 | D,6 G,2 | F,4 z2 F,2 | F,3 F, F,2 F,2 | C,4 z2 G,2 | G,2 G,2 D,4 | z8 | G,4 F,2 F,2 | %8
w: Je|suis hon-|teux, et|n'o- se des- cou-|vrir, la|bon- ne'a- mour,||que j'ay en-|
w: Si|u- ne|fois ie|la puis re- cou-|vrir, à|mon se- cret||seu- le sans|
"^b""^b" G,F,E,D, C,2 E,2 |1 D,4 G,,4 :|2 D,4 G,,2 G,,2 || G,,2 G,,2 C,4 | z2 C,2 C,2 C,2 | %13
w: vers _ _ _ _ m'a-|my- e,|my- e, ie|luy di- ray,|ie luy di-|
w: com- * * * * pa-|gny- e,|gny- e, ie|luy di- ray||
 F,3 E, D,2 C,2 | D,2 F,4 E,D, | A,4 D,2 B,2 | B,2 B,2 F,4 | z2 B,2 B,2 B,2 | F,2 F,2 G,2 G,2 | %19
w: ray, da- me, trop|il m'en- * *|nuy- e, de|vo- stre coeur,|de vo- stre|coeur que n'en sçay|
w: ||||||
"^b" D,4 E,4 | D,8 | z4 G,4- | G,4 D,4- | D,2 G,2 F,4 | z2 F,2 F,3 F, | F,2 F,2 C,4 | %26
w: la pen-|sé'e:|Ac-|* col-|* lez moy|doul- ce ment|ie vous pri-|
w: |||||||
"^#" C,2 G,2 G,2 G,2 | D,4 z4 | z4 G,4 |"^b" F,2 F,2 G,F,E,D, |"^b" C,2 E,2 D,4 | G,,4 z2 G,2 | %32
w: e, et dic- tes|moy,|(s'il|vous plaist) la _ _ _|_ iour- né-|e, ac-|
w: ||||||
 D,2 G,2 F,4 | z2 F,2 F,3 F, |"^#" F,2 F,2 C,4 | C,2 G,2 G,2 G,2 | D,4 z4 | z4 G,4 | %38
w: col- lez moy|doul- ce- ment|ie vous pri-|e, et dic- tes|moy|'s'il|
w: ||||||
"^b" F,2 F,2 G,F,E,D, |"^b" C,2 E,2 D,4 | G,,8 |] %41
w: vous plaist) :a _ _ _|_ iour- né-|e.|
w: |||

